Sources/FrostedUI/Resources/Icons.xcassets/arrowUpFromBracket12.imageset/arrow-up-from-bracket-12.svg

<svg width="12" height="12" viewBox="0 0 12 12" fill="none" xmlns="http://www.w3.org/2000/svg" data-fui-icon="true">
  <path
    d="M10.25 6.00024C10.6642 6.00024 11 6.33603 11 6.75024V7.75024C10.9999 9.54506 9.54485 11.0002 7.75 11.0002H4.25C2.45515 11.0002 1.00013 9.54506 1 7.75024V6.75024C1 6.33603 1.33579 6.00024 1.75 6.00024C2.16421 6.00024 2.5 6.33603 2.5 6.75024V7.75024C2.50013 8.71664 3.28358 9.50024 4.25 9.50024H7.75C8.71642 9.50024 9.49987 8.71663 9.5 7.75024V6.75024C9.5 6.33603 9.83579 6.00024 10.25 6.00024ZM5.36914 0.265869C5.76191 -0.0544952 6.34091 -0.0318764 6.70703 0.334229L9.03027 2.65747C9.32301 2.95038 9.32312 3.42518 9.03027 3.71802C8.73742 4.01071 8.26258 4.01071 7.96973 3.71802L6.75 2.49829V6.25024C6.74985 6.66433 6.41412 7.00024 6 7.00024C5.58589 7.00022 5.25015 6.66432 5.25 6.25024V2.49829L4.03027 3.71802C3.73741 4.01076 3.26259 4.01076 2.96973 3.71802C2.67687 3.42516 2.67695 2.95037 2.96973 2.65747L5.29297 0.334229L5.36914 0.265869Z"
    fill="currentColor"
  />
</svg>

<svg xmlns="http://www.w3.org/2000/svg" width="12" height="12" fill="none" data-fui-icon="true" viewBox="0 0 12 12"><path fill="currentColor" d="M10.25 6a.75.75 0 0 1 .75.75v1A3.25 3.25 0 0 1 7.75 11h-3.5A3.25 3.25 0 0 1 1 7.75v-1a.75.75 0 0 1 1.5 0v1c0 .967.784 1.75 1.75 1.75h3.5A1.75 1.75 0 0 0 9.5 7.75v-1a.75.75 0 0 1 .75-.75M5.37.266a1 1 0 0 1 1.337.068L9.03 2.657a.75.75 0 0 1-1.06 1.061l-1.22-1.22V6.25a.75.75 0 0 1-1.5 0V2.498l-1.22 1.22a.75.75 0 0 1-1.06-1.06L5.293.333z"/></svg>
